svgs/sharp-light/arrow-up-to-line.svg

<svg xmlns="http://www.w3.org/2000/svg" viewBox="0 0 384 512"><!--! Font Awesome Pro 6.6.0 by @fontawesome - https://fontawesome.com License - https://fontawesome.com/license (Commercial License) Copyright 2024 Fonticons, Inc. --><path d="M16 32L0 32 0 64l16 0 352 0 16 0 0-32-16 0L16 32zM203.3 132.7L192 121.4l-11.3 11.3-128 128L41.4 272 64 294.6l11.3-11.3L176 182.6 176 288l0 176 0 16 32 0 0-16 0-176 0-105.4L308.7 283.3 320 294.6 342.6 272l-11.3-11.3-128-128z"/></svg>

<svg xmlns="http://www.w3.org/2000/svg" viewBox="0 0 384 512"><!--! Font Awesome Pro 6.4.2 by @fontawesome - https://fontawesome.com License - https://fontawesome.com/license (Commercial License) Copyright 2023 Fonticons, Inc. --><path d="M16 32H0V64H16 368h16V32H368 16zM203.3 132.7L192 121.4l-11.3 11.3-128 128L41.4 272 64 294.6l11.3-11.3L176 182.6V288 464v16h32V464 288 182.6L308.7 283.3 320 294.6 342.6 272l-11.3-11.3-128-128z"/></svg>
